eperusteet-opintopolku-app/v2/public/img/icons/ratas.svg

<?xml version="1.0" encoding="UTF-8"?>
<svg width="20px" height="20px" viewBox="0 0 20 20" version="1.1" xmlns="http://www.w3.org/2000/svg" xmlns:xlink="http://www.w3.org/1999/xlink">
    <!-- Generator: sketchtool 58 (101010) - https://sketch.com -->
    <title>2DAC0AC7-BB69-4B5F-ADEA-4CE2B7DDD3DE@2x</title>
    <desc>Created with sketchtool.</desc>
    <defs>
        <path d="M12.4567254,0 C12.7009983,0 12.8964167,0.183333333 12.9452713,0.416666667 L13.3035384,3.06666667 C13.9060784,3.31666667 14.4434789,3.65 14.9483097,4.05 L17.3747546,3.05 C17.6027427,2.96666667 17.8470157,3.05 17.9772946,3.26666667 L19.9314784,6.71666667 C20.0617573,6.93333333 19.9966179,7.21666667 19.8174844,7.36666667 L17.7493065,9.01666667 C17.7818762,9.35 17.814446,9.66666667 17.814446,10 C17.814446,10.3166667 17.7981611,10.65 17.7493065,10.9666667 L19.8174844,12.6166667 C19.9966179,12.7833333 20.0617573,13.05 19.9314784,13.2666667 L17.9772946,16.7166667 C17.8470157,16.9333333 17.6027427,17.0166667 17.3747546,16.9333333 L14.9483097,15.9333333 C14.4434789,16.3333333 13.8897935,16.6666667 13.3035384,16.9166667 L12.9452713,19.5666667 C12.8964167,19.8166667 12.7009983,20 12.4567254,20 L8.54835777,20 C8.30408479,20 8.10866641,19.8166667 8.05981182,19.5833333 L7.70154479,16.9333333 C7.09900478,16.6833333 6.56160423,16.35 6.05677342,15.95 L3.63032853,16.95 C3.40234042,17.0333333 3.15806744,16.95 3.02778852,16.7333333 L1.07360472,13.2833333 C0.943325799,13.0666667 0.992180394,12.8 1.17131391,12.6333333 L3.23949177,10.9833333 C3.20692204,10.65 3.17435231,10.3333333 3.17435231,10 C3.17435231,9.66666667 3.20692204,9.35 3.25577663,9.01666667 L1.18759877,7.36666667 C1.00846526,7.2 0.943325799,6.93333333 1.07360472,6.71666667 L3.02778852,3.26666667 C3.15806744,3.05 3.40234042,2.96666667 3.63032853,3.05 L6.05677342,4.05 C6.54531937,3.65 7.11528964,3.33333333 7.70154479,3.08333333 L8.05981182,0.433333333 C8.10866641,0.183333333 8.30408479,0 8.54835777,0 L12.4567254,0 Z M11.1411353,2 L9.8662011,2 L9.53127878,4.47732576 L8.48606235,4.92304315 C8.01906017,5.12218945 7.62636403,5.34973746 7.3237813,5.59747893 L6.39934057,6.35437045 L5.29470329,5.89912117 L4.11166297,5.41066803 L3.43643048,6.60228499 L5.4012587,8.16983226 L5.23463568,9.30669574 C5.19281444,9.59204073 5.17435231,9.8025848 5.17435231,10 C5.17435231,10.0998678 5.17911006,10.2090791 5.18908305,10.3417676 C5.19740086,10.4524343 5.20293789,10.5117474 5.2300125,10.7888412 L5.33560789,11.8695521 L3.43155013,13.3886164 L4.11103839,14.5886974 L6.37934131,13.6538718 L7.29883253,14.3824257 C7.68824264,14.6909727 8.0677494,14.9199574 8.46800997,15.0860296 L9.52953851,15.5264686 L9.86394785,18 L11.138882,18 L11.4738044,15.5226742 L12.5190208,15.0769569 C12.9343815,14.8998323 13.3350909,14.6598455 13.7062506,14.365759 L14.6257418,13.6372051 L15.7103799,14.0842122 L16.8934202,14.5726653 L17.5686527,13.3810483 L15.5959646,11.8072305 L15.7726915,10.6617191 C15.8004673,10.4816814 15.814446,10.2585011 15.814446,10 C15.814446,9.90013222 15.8096882,9.79092091 15.7997152,9.65823236 C15.7913974,9.54756569 15.7858604,9.48825262 15.7587572,9.2108666 L15.6531904,8.13044793 L16.5020112,7.45325549 L17.5686527,6.6026942 L16.8940447,5.4113026 L14.6257418,6.34612825 L13.7062506,5.61757429 C13.3168405,5.30902727 12.9373337,5.08004261 12.5370732,4.91397041 L11.4755446,4.47353138 L11.1411353,2 Z M10.5,8 C11.6045695,8 12.5,8.8954305 12.5,10 C12.5,11.1045695 11.6045695,12 10.5,12 C9.3954305,12 8.5,11.1045695 8.5,10 C8.5,8.8954305 9.3954305,8 10.5,8 Z" id="path-1"></path>
    </defs>
    <g id="ASSETIT" stroke="none" stroke-width="1" fill="none" fill-rule="evenodd">
        <g id="ASSETIT---IKONIT" transform="translate(-39.000000, -447.000000)">
            <g id="Ikonit/Ratas" transform="translate(39.000000, 447.000000)">
                <g>
                    <mask id="mask-2" fill="white">
                        <use xlink:href="#path-1"></use>
                    </mask>
                    <use id="Combined-Shape" fill="#BB4E4E" fill-rule="nonzero" xlink:href="#path-1"></use>
                    <g id="Värit/Tumma-harmaa" mask="url(#mask-2)" fill="#575757">
                        <rect id="Rectangle" x="0" y="0" width="20" height="20"></rect>
                    </g>
                </g>
            </g>
        </g>
    </g>
</svg>

<svg width="21" height="20" xmlns="http://www.w3.org/2000/svg">
    <path d="M12.457 0c.244 0 .44.183.488.417l.359 2.65c.602.25 1.14.583 1.644.983l2.427-1a.492.492 0 01.602.217l1.954 3.45c.13.216.066.5-.114.65l-2.068 1.65c.033.333.065.65.065.983 0 .317-.016.65-.065.967l2.068 1.65c.18.166.245.433.114.65l-1.954 3.45a.492.492 0 01-.602.216l-2.427-1a7.21 7.21 0 01-1.644.984l-.359 2.65c-.049.25-.244.433-.488.433H8.548a.509.509 0 01-.488-.417l-.358-2.65a6.876 6.876 0 01-1.645-.983l-2.427 1a.492.492 0 01-.602-.217l-1.954-3.45a.518.518 0 01.097-.65l2.068-1.65c-.032-.333-.065-.65-.065-.983 0-.333.033-.65.082-.983l-2.068-1.65c-.18-.167-.245-.434-.114-.65l1.954-3.45c.13-.217.374-.3.602-.217l2.427 1a6.818 6.818 0 011.645-.967L8.06.433C8.109.183 8.304 0 8.548 0h3.909zM11.14 2H9.866l-.335 2.477-1.045.446c-.467.2-.86.427-1.162.674l-.925.757L5.295 5.9l-1.183-.488-.676 1.191L5.401 8.17l-.166 1.137a4.67 4.67 0 00-.06.693c0 .1.004.21.014.342.008.11.014.17.041.447l.106 1.08-1.904 1.52.679 1.2 2.268-.935.92.728c.39.309.769.538 1.169.704l1.062.44L9.864 18h1.275l.335-2.477 1.045-.446a5.21 5.21 0 001.187-.711l.92-.729 1.084.447 1.183.489.676-1.192-1.973-1.574.177-1.145a4.46 4.46 0 00.027-1.004c-.009-.11-.014-.17-.041-.447l-.106-1.08.849-.678 1.067-.85-.675-1.192-2.268.935-.92-.728a4.88 4.88 0 00-1.169-.704l-1.061-.44L11.14 2zm-.64 6a2 2 0 110 4 2 2 0 010-4z"/>
</svg>
